X: 02081
T: MIKE'S FLASHER
C: Bob McQuillen Jan'76
B: Bob's Note Book 1&2 #81
%R: reel
Z: 2019 John Chambers <jc:trillian.mit.edu>
M: C
L: 1/8
K: D
A2 \
| d2df dAdf | e2eg eAeg | fgaf bagf | e2e3 g fe |
| d2df dAdf | e2eg eAeg | fgaf bgea | f2 d4 :|
|: fg \
| a2af bagf | g2 e4 g2 | f2a2 gfed | c2 A4 Bc |
| d2df dAdf | a2ab afdf | gbag fedc | d4- d2 :|
%%begintext align
%% For Mike Fraser
%%endtext

%%sep 1 1 500

%%sep 1 1 500

